X:0701
T:Miss Ann Bain's Fancy.
N:cf. Shetland "A Yowe Came To Our Door Yarmin"
M:C
L:1/8
Q:1/4=132
P:ABA % Aird prints a da capo
N:final note of B part is a crotchet in the book
Z:Jack Campin * www.campin.me.uk * 2009
K:G
P:A
G>AB>c d<BA<G|F<AD2 F<AD2|G>AB>c d<BA<G|c<A (GF) G2-G2:|
P:B
D2 DF  E2 EG |F2 FA G2 G2|D2 DF  E2 EG |F>G``AF  G2 G2 |
c2 cA  B2 BG |F<AD2 F<AD2|E>FGE  F>GAG |G2   G2  G4   ||

